packages/icons/svg/32/Serif.svg

<svg width="32" height="32" viewBox="0 0 32 32" fill="none" xmlns="http://www.w3.org/2000/svg">
<path d="M5.72392 18.4547L8.15468 10.7924L10.6772 18.4547H5.72392ZM15.6763 23.6597L10.1956 8H8.20054L2.97212 23.5926L1 23.8607V24.6426H6.36601V23.8607L4.11871 23.5926L5.47168 19.2812H10.9523L12.397 23.615L10.1727 23.8607V24.6426H17.5796V23.8607L15.6763 23.6597Z" fill="#858585"/>
<path d="M25.7945 22.364C24.7397 23.2129 24.1664 23.548 23.4096 23.548C22.3089 23.548 21.5751 22.9225 21.5751 21.6045C21.5751 20.2194 22.263 19.1919 24.0746 18.4993C24.4645 18.343 25.1066 18.1643 25.7945 17.9632V22.364ZM30.5872 23.1012C30.1745 23.6373 29.8993 23.8384 29.5553 23.8384C29.0508 23.8384 28.7298 23.5033 28.7298 22.498V16.7346C28.7298 13.6071 27.4685 12.3338 24.4645 12.3338C21.277 12.3338 19.3736 13.5848 19.0755 15.5953C19.2131 16.2654 19.6947 16.6229 20.4514 16.6229C21.2311 16.6229 21.8503 16.1314 21.942 14.9028L22.263 13.2944C22.6758 13.205 23.0656 13.1603 23.4555 13.1603C25.1754 13.1603 25.7945 13.8081 25.7945 16.1761V17.3154C24.9002 17.5164 23.9829 17.7622 23.295 17.9855C19.7635 19.0578 18.7086 20.1524 18.7086 22.0066C18.7086 23.883 20.1075 25 22.0337 25C23.7307 25 24.625 24.3075 25.8862 23.0118C26.1843 24.2181 26.987 24.9777 28.3858 24.9777C29.6012 24.9777 30.4038 24.5532 31 23.4363L30.5872 23.1012Z" fill="#858585"/>
</svg>

<svg width="32" height="32" fill="none" xmlns="http://www.w3.org/2000/svg" viewBox="0 0 32 32"><path d="M5.724 18.455l2.43-7.663 2.523 7.663H5.724zm9.952 5.205L10.196 8H8.2L2.972 23.593 1 23.86v.782h5.366v-.782l-2.247-.268 1.353-4.312h5.48l1.445 4.334-2.224.246v.782h7.407v-.782l-1.904-.201zM25.794 22.364c-1.054.849-1.628 1.184-2.384 1.184-1.101 0-1.835-.625-1.835-1.943 0-1.386.688-2.413 2.5-3.106.39-.156 1.032-.335 1.72-.536v4.401zm4.793.737c-.413.536-.688.737-1.032.737-.504 0-.825-.335-.825-1.34v-5.763c0-3.128-1.262-4.401-4.265-4.401-3.188 0-5.091 1.25-5.39 3.261.138.67.62 1.028 1.376 1.028.78 0 1.4-.492 1.491-1.72l.321-1.609c.413-.089.803-.134 1.192-.134 1.72 0 2.34.648 2.34 3.016v1.14c-.895.2-1.812.446-2.5.67-3.532 1.072-4.586 2.166-4.586 4.02 0 1.877 1.399 2.994 3.325 2.994 1.697 0 2.591-.692 3.852-1.988.298 1.206 1.101 1.966 2.5 1.966 1.215 0 2.018-.425 2.614-1.542l-.413-.335z" fill="currentColor"></path></svg>
